public/images/mulberry-symbols/colander.svg

<svg xmlns="http://www.w3.org/2000/svg" width="850.394" height="850.394" viewBox="0 0 850.394 850.394" overflow="visible"><path d="M619.5 574.69c11.02 12.68 17.16 26.79 17.16 41.649 0 55.29-85.021 100.11-189.9 100.11-104.89 0-189.92-44.82-189.92-100.11 0-14.74 6.04-28.74 16.89-41.34 53.18 26.39 113.7 39.08 172.41 39.08l.28.02c58.96.001 119.73-12.789 173.08-39.409z" fill="#c8c8c8"/><path d="M273.73 575c-22.92-11.36-44.49-25.28-63.95-41.83-28.86-24.54-53.13-54.86-68.47-89.65-8.04-18.22-11.83-42.359-13.8-67.319-2.16-27.32-2.13-55.64-3.08-78.3-.13-3.12-.28-6.12-.46-9 23.55 54.5 158.41 96.27 321.26 96.27 172.27 0 313.239-46.75 324.22-105.86-2.62 43.1-.17 123.37-18.19 164.23-15.34 34.79-39.609 65.11-68.47 89.65-19.28 16.39-40.61 30.199-63.29 41.5C566.15 601.31 505.38 614.1 446.42 614.1l-.28-.02c-58.71 0-119.23-12.69-172.41-39.08zm388.3-169.31c0-7.31-5.931-13.24-13.24-13.24s-13.24 5.93-13.24 13.24c0 7.3 5.931 13.23 13.24 13.23s13.24-5.93 13.24-13.23zm0 59.46c0-7.311-5.931-13.24-13.24-13.24s-13.24 5.93-13.24 13.24c0 7.29 5.931 13.22 13.24 13.22s13.24-5.93 13.24-13.22zm0 57.03c0-7.319-5.931-13.25-13.24-13.25s-13.24 5.931-13.24 13.25c0 7.301 5.931 13.23 13.24 13.23s13.24-5.93 13.24-13.23zm-103.14-84.82c0-7.32-5.93-13.25-13.239-13.25-7.311 0-13.24 5.93-13.24 13.25 0 7.29 5.93 13.22 13.24 13.22 7.309 0 13.239-5.93 13.239-13.22zm0 59.45c0-7.31-5.93-13.239-13.239-13.239-7.311 0-13.24 5.93-13.24 13.239 0 7.301 5.93 13.23 13.24 13.23 7.309 0 13.239-5.93 13.239-13.23zm0 57.04c0-7.319-5.93-13.25-13.239-13.25-7.311 0-13.24 5.931-13.24 13.25 0 7.29 5.93 13.221 13.24 13.221 7.309-.001 13.239-5.931 13.239-13.221zm-99.51-93.43c0-7.32-5.93-13.25-13.24-13.25-7.31 0-13.229 5.93-13.229 13.25 0 7.29 5.92 13.22 13.229 13.22 7.31 0 13.24-5.93 13.24-13.22zm0 59.45c0-7.311-5.93-13.24-13.24-13.24-7.31 0-13.229 5.93-13.229 13.24 0 7.3 5.92 13.229 13.229 13.229 7.31.001 13.24-5.929 13.24-13.229zm0 57.03c0-7.311-5.93-13.24-13.24-13.24-7.31 0-13.229 5.93-13.229 13.24 0 7.3 5.92 13.229 13.229 13.229 7.31.001 13.24-5.929 13.24-13.229zM352.59 438.03c0-7.33-5.92-13.25-13.24-13.25-7.31 0-13.24 5.92-13.24 13.25 0 7.29 5.93 13.22 13.24 13.22 7.32 0 13.24-5.93 13.24-13.22zm0 59.45c0-7.32-5.92-13.25-13.24-13.25-7.31 0-13.24 5.93-13.24 13.25 0 7.3 5.93 13.229 13.24 13.229 7.32.001 13.24-5.929 13.24-13.229zm0 57.03c0-7.31-5.92-13.24-13.24-13.24-7.31 0-13.24 5.931-13.24 13.24 0 7.29 5.93 13.221 13.24 13.221 7.32-.001 13.24-5.931 13.24-13.221zM249.45 406.36c0-7.32-5.92-13.25-13.24-13.25-7.31 0-13.24 5.93-13.24 13.25 0 7.29 5.93 13.22 13.24 13.22 7.32 0 13.24-5.93 13.24-13.22zm0 59.45c0-7.31-5.92-13.229-13.24-13.229-7.31 0-13.24 5.92-13.24 13.229 0 7.301 5.93 13.23 13.24 13.23 7.32 0 13.24-5.93 13.24-13.23zm0 57.04c0-7.319-5.92-13.25-13.24-13.25-7.31 0-13.24 5.931-13.24 13.25 0 7.301 5.93 13.23 13.24 13.23 7.32 0 13.24-5.93 13.24-13.23z" fill="#c8c8c8"/><path d="M123.97 288.9c-2.4-5.56-3.64-11.24-3.64-17.03 0-62.57 145.46-113.29 324.9-113.29 58.06 0 112.569 5.31 159.739 14.61 57.61 11.37 104.28 28.69 133.13 49.56 20.53 14.86 32.04 31.52 32.04 49.12 0 2.5-.229 4.98-.689 7.44-10.98 59.11-151.95 105.86-324.22 105.86-162.85 0-297.71-41.77-321.26-96.27zm536.24 6.7c0-7.3-5.93-13.23-13.24-13.23-7.31 0-13.239 5.93-13.239 13.23 0 7.31 5.93 13.24 13.239 13.24 7.31 0 13.24-5.93 13.24-13.24zm-103.14-31.67c0-7.3-5.931-13.22-13.24-13.22-7.311 0-13.24 5.92-13.24 13.22 0 7.32 5.93 13.25 13.24 13.25 7.31 0 13.24-5.93 13.24-13.25zm0 74.21c0-7.3-5.931-13.23-13.24-13.23-7.311 0-13.24 5.93-13.24 13.23 0 7.32 5.93 13.25 13.24 13.25 7.31 0 13.24-5.93 13.24-13.25zm-99.51-97.27c0-7.29-5.93-13.22-13.239-13.22-7.311 0-13.24 5.93-13.24 13.22 0 7.32 5.93 13.25 13.24 13.25 7.309 0 13.239-5.93 13.239-13.25zm0 74.21c0-7.29-5.93-13.22-13.239-13.22-7.311 0-13.24 5.93-13.24 13.22 0 7.32 5.93 13.25 13.24 13.25 7.309 0 13.239-5.93 13.239-13.25zm-106.79-51.82c0-7.29-5.92-13.22-13.24-13.22-7.31 0-13.24 5.93-13.24 13.22 0 7.33 5.93 13.26 13.24 13.26 7.32 0 13.24-5.93 13.24-13.26zm0 74.21c0-7.29-5.92-13.22-13.24-13.22-7.31 0-13.24 5.93-13.24 13.22 0 7.32 5.93 13.25 13.24 13.25 7.32 0 13.24-5.93 13.24-13.25zm-103.14-42.54c0-7.29-5.92-13.22-13.24-13.22-7.31 0-13.24 5.93-13.24 13.22 0 7.32 5.93 13.25 13.24 13.25 7.32 0 13.24-5.93 13.24-13.25z" fill="#c8c8c8"/><path d="M648.79 392.45c7.31 0 13.24 5.93 13.24 13.24 0 7.3-5.931 13.23-13.24 13.23s-13.24-5.93-13.24-13.23c0-7.31 5.93-13.24 13.24-13.24zM648.79 451.91c7.31 0 13.24 5.93 13.24 13.24 0 7.29-5.931 13.22-13.24 13.22s-13.24-5.93-13.24-13.22c0-7.31 5.93-13.24 13.24-13.24zM648.79 508.93c7.31 0 13.24 5.931 13.24 13.25 0 7.301-5.931 13.23-13.24 13.23s-13.24-5.93-13.24-13.23c0-7.32 5.93-13.25 13.24-13.25zM646.97 282.37c7.311 0 13.24 5.93 13.24 13.23 0 7.31-5.93 13.24-13.24 13.24-7.31 0-13.239-5.93-13.239-13.24-.001-7.3 5.929-13.23 13.239-13.23zM545.65 424.11c7.31 0 13.239 5.93 13.239 13.25 0 7.29-5.93 13.22-13.239 13.22-7.311 0-13.24-5.93-13.24-13.22 0-7.32 5.93-13.25 13.24-13.25zM545.65 483.57c7.31 0 13.239 5.93 13.239 13.239 0 7.301-5.93 13.23-13.239 13.23-7.311 0-13.24-5.93-13.24-13.23 0-7.309 5.93-13.239 13.24-13.239zM545.65 540.6c7.31 0 13.239 5.931 13.239 13.25 0 7.29-5.93 13.221-13.239 13.221-7.311 0-13.24-5.931-13.24-13.221 0-7.32 5.93-13.25 13.24-13.25zM543.83 250.71c7.31 0 13.24 5.92 13.24 13.22 0 7.32-5.931 13.25-13.24 13.25-7.311 0-13.24-5.93-13.24-13.25 0-7.3 5.93-13.22 13.24-13.22zM543.83 324.91c7.31 0 13.24 5.93 13.24 13.23 0 7.32-5.931 13.25-13.24 13.25-7.311 0-13.24-5.93-13.24-13.25 0-7.3 5.93-13.23 13.24-13.23zM446.14 447.17c7.311 0 13.24 5.93 13.24 13.25 0 7.29-5.93 13.22-13.24 13.22-7.31 0-13.229-5.93-13.229-13.22-.001-7.32 5.919-13.25 13.229-13.25zM446.14 506.63c7.311 0 13.24 5.93 13.24 13.24 0 7.3-5.93 13.229-13.24 13.229-7.31 0-13.229-5.93-13.229-13.229-.001-7.31 5.919-13.24 13.229-13.24zM446.14 563.66c7.311 0 13.24 5.93 13.24 13.24 0 7.3-5.93 13.229-13.24 13.229-7.31 0-13.229-5.93-13.229-13.229-.001-7.31 5.919-13.24 13.229-13.24zM444.32 227.65c7.31 0 13.239 5.93 13.239 13.22 0 7.32-5.93 13.25-13.239 13.25-7.311 0-13.24-5.93-13.24-13.25 0-7.29 5.93-13.22 13.24-13.22zM444.32 301.86c7.31 0 13.239 5.93 13.239 13.22 0 7.32-5.93 13.25-13.239 13.25-7.311 0-13.24-5.93-13.24-13.25 0-7.29 5.93-13.22 13.24-13.22zM339.35 424.78c7.32 0 13.24 5.92 13.24 13.25 0 7.29-5.92 13.22-13.24 13.22-7.31 0-13.24-5.93-13.24-13.22 0-7.33 5.93-13.25 13.24-13.25zM339.35 484.23c7.32 0 13.24 5.93 13.24 13.25 0 7.3-5.92 13.229-13.24 13.229-7.31 0-13.24-5.93-13.24-13.229 0-7.32 5.93-13.25 13.24-13.25zM339.35 541.27c7.32 0 13.24 5.931 13.24 13.24 0 7.29-5.92 13.221-13.24 13.221-7.31 0-13.24-5.931-13.24-13.221 0-7.31 5.93-13.24 13.24-13.24zM337.53 250.04c7.32 0 13.24 5.93 13.24 13.22 0 7.33-5.92 13.26-13.24 13.26-7.31 0-13.24-5.93-13.24-13.26 0-7.29 5.93-13.22 13.24-13.22zM337.53 324.25c7.32 0 13.24 5.93 13.24 13.22 0 7.32-5.92 13.25-13.24 13.25-7.31 0-13.24-5.93-13.24-13.25 0-7.29 5.93-13.22 13.24-13.22zM236.21 393.11c7.32 0 13.24 5.93 13.24 13.25 0 7.29-5.92 13.22-13.24 13.22-7.31 0-13.24-5.93-13.24-13.22 0-7.32 5.93-13.25 13.24-13.25zM236.21 452.58c7.32 0 13.24 5.92 13.24 13.229 0 7.301-5.92 13.23-13.24 13.23-7.31 0-13.24-5.93-13.24-13.23 0-7.309 5.93-13.229 13.24-13.229zM236.21 509.6c7.32 0 13.24 5.931 13.24 13.25 0 7.301-5.92 13.23-13.24 13.23-7.31 0-13.24-5.93-13.24-13.23 0-7.32 5.93-13.25 13.24-13.25zM234.39 281.71c7.32 0 13.24 5.93 13.24 13.22 0 7.32-5.92 13.25-13.24 13.25-7.31 0-13.24-5.93-13.24-13.25 0-7.29 5.93-13.22 13.24-13.22z" fill="#231f20"/><g fill="none" stroke="#231f20"><path d="M738.1 222.75c20.53 14.86 32.04 31.52 32.04 49.12 0 2.5-.229 4.98-.689 7.44-10.98 59.11-151.95 105.86-324.22 105.86-162.851 0-297.71-41.77-321.26-96.27-2.4-5.56-3.64-11.24-3.64-17.03 0-62.57 145.46-113.29 324.9-113.29 58.06 0 112.569 5.31 159.739 14.61 57.61 11.37 104.28 28.69 133.13 49.56z" stroke-width="21"/><path d="M769.46 279.1c0 .07-.01.14-.01.21-2.62 43.1-.17 123.37-18.19 164.23-15.34 34.79-39.609 65.11-68.47 89.65-19.28 16.39-40.61 30.199-63.29 41.5-53.35 26.62-114.12 39.41-173.08 39.41l-.28-.02c-58.709 0-119.229-12.69-172.41-39.08-22.92-11.36-44.49-25.28-63.95-41.83-28.86-24.54-53.13-54.86-68.47-89.65-8.04-18.22-11.83-42.359-13.8-67.319-2.16-27.32-2.13-55.64-3.08-78.3-.13-3.12-.28-6.12-.46-9v-.06" stroke-width="21"/><path d="M619.5 574.69c11.02 12.68 17.16 26.79 17.16 41.649 0 55.29-85.021 100.11-189.9 100.11-104.89 0-189.92-44.82-189.92-100.11 0-14.74 6.04-28.74 16.89-41.34l.02-.02" stroke-width="21"/><path d="M606 168c6.88-8.23 6.48-32.2 49.47-32.2 23.66 0 107.391 25.48 120.13 38.22C788.34 186.77 744 193.79 744 222M122 298s-37.17-4.75-50.82 8.9c-13.65 13.65 33.6 46.57 56.33 69.3l.01.01c22.73 22.73 52.87-15.61 92.92 8.96" stroke-width="28"/></g><path fill="none" d="M0 0h850.394v850.394H0z"/></svg>

<?xml version="1.0" encoding="iso-8859-1"?>
<!-- Generator: Adobe Illustrator 12.0.1, SVG Export Plug-In . SVG Version: 6.00 Build 51448)  -->
<!DOCTYPE svg PUBLIC "-//W3C//DTD SVG 1.1//EN" "http://www.w3.org/Graphics/SVG/1.1/DTD/svg11.dtd" [
	<!ENTITY ns_svg "http://www.w3.org/2000/svg">
	<!ENTITY ns_xlink "http://www.w3.org/1999/xlink">
]>
<svg  version="1.1" id="Layer_1" xmlns="&ns_svg;" xmlns:xlink="&ns_xlink;" width="850.394" height="850.394"
	 viewBox="0 0 850.394 850.394" style="overflow:visible;enable-background:new 0 0 850.394 850.394;" xml:space="preserve">
<g id="XMLID_2_">
	<g>
		<path style="fill:#C8C8C8;" d="M619.5,574.69c11.02,12.68,17.16,26.79,17.16,41.649c0,55.29-85.021,100.11-189.9,100.11
			c-104.89,0-189.92-44.82-189.92-100.11c0-14.74,6.04-28.74,16.89-41.34c53.18,26.39,113.7,39.08,172.41,39.08l0.28,0.02
			C505.38,614.1,566.15,601.31,619.5,574.69z"/>
		<path style="fill:#C8C8C8;" d="M273.73,575c-22.92-11.36-44.49-25.28-63.95-41.83c-28.86-24.54-53.13-54.86-68.47-89.65
			c-8.04-18.22-11.83-42.359-13.8-67.319c-2.16-27.32-2.13-55.64-3.08-78.3c-0.13-3.12-0.28-6.12-0.46-9
			c23.55,54.5,158.41,96.27,321.26,96.27c172.27,0,313.239-46.75,324.22-105.86c-2.62,43.1-0.17,123.37-18.19,164.23
			c-15.34,34.79-39.609,65.11-68.47,89.65c-19.28,16.39-40.61,30.199-63.29,41.5C566.15,601.31,505.38,614.1,446.42,614.1
			l-0.28-0.02C387.43,614.08,326.91,601.39,273.73,575z M662.03,405.69c0-7.31-5.931-13.24-13.24-13.24s-13.24,5.93-13.24,13.24
			c0,7.3,5.931,13.23,13.24,13.23S662.03,412.99,662.03,405.69z M662.03,465.15c0-7.311-5.931-13.24-13.24-13.24
			s-13.24,5.93-13.24,13.24c0,7.29,5.931,13.22,13.24,13.22S662.03,472.44,662.03,465.15z M662.03,522.18
			c0-7.319-5.931-13.25-13.24-13.25s-13.24,5.931-13.24,13.25c0,7.301,5.931,13.23,13.24,13.23S662.03,529.48,662.03,522.18z
			 M558.89,437.36c0-7.32-5.93-13.25-13.239-13.25c-7.311,0-13.24,5.93-13.24,13.25c0,7.29,5.93,13.22,13.24,13.22
			C552.96,450.58,558.89,444.65,558.89,437.36z M558.89,496.81c0-7.31-5.93-13.239-13.239-13.239c-7.311,0-13.24,5.93-13.24,13.239
			c0,7.301,5.93,13.23,13.24,13.23C552.96,510.04,558.89,504.11,558.89,496.81z M558.89,553.85c0-7.319-5.93-13.25-13.239-13.25
			c-7.311,0-13.24,5.931-13.24,13.25c0,7.29,5.93,13.221,13.24,13.221C552.96,567.07,558.89,561.14,558.89,553.85z M459.38,460.42
			c0-7.32-5.93-13.25-13.24-13.25c-7.31,0-13.229,5.93-13.229,13.25c0,7.29,5.92,13.22,13.229,13.22
			C453.45,473.64,459.38,467.71,459.38,460.42z M459.38,519.87c0-7.311-5.93-13.24-13.24-13.24c-7.31,0-13.229,5.93-13.229,13.24
			c0,7.3,5.92,13.229,13.229,13.229C453.45,533.1,459.38,527.17,459.38,519.87z M459.38,576.9c0-7.311-5.93-13.24-13.24-13.24
			c-7.31,0-13.229,5.93-13.229,13.24c0,7.3,5.92,13.229,13.229,13.229C453.45,590.13,459.38,584.2,459.38,576.9z M352.59,438.03
			c0-7.33-5.92-13.25-13.24-13.25c-7.31,0-13.24,5.92-13.24,13.25c0,7.29,5.93,13.22,13.24,13.22
			C346.67,451.25,352.59,445.32,352.59,438.03z M352.59,497.48c0-7.32-5.92-13.25-13.24-13.25c-7.31,0-13.24,5.93-13.24,13.25
			c0,7.3,5.93,13.229,13.24,13.229C346.67,510.71,352.59,504.78,352.59,497.48z M352.59,554.51c0-7.31-5.92-13.24-13.24-13.24
			c-7.31,0-13.24,5.931-13.24,13.24c0,7.29,5.93,13.221,13.24,13.221C346.67,567.73,352.59,561.8,352.59,554.51z M249.45,406.36
			c0-7.32-5.92-13.25-13.24-13.25c-7.31,0-13.24,5.93-13.24,13.25c0,7.29,5.93,13.22,13.24,13.22
			C243.53,419.58,249.45,413.65,249.45,406.36z M249.45,465.81c0-7.31-5.92-13.229-13.24-13.229c-7.31,0-13.24,5.92-13.24,13.229
			c0,7.301,5.93,13.23,13.24,13.23C243.53,479.04,249.45,473.11,249.45,465.81z M249.45,522.85c0-7.319-5.92-13.25-13.24-13.25
			c-7.31,0-13.24,5.931-13.24,13.25c0,7.301,5.93,13.23,13.24,13.23C243.53,536.08,249.45,530.15,249.45,522.85z"/>
		<path style="fill:#C8C8C8;" d="M123.97,288.9c-2.4-5.56-3.64-11.24-3.64-17.03c0-62.57,145.46-113.29,324.9-113.29
			c58.06,0,112.569,5.31,159.739,14.61c57.61,11.37,104.28,28.69,133.13,49.56c20.53,14.86,32.04,31.52,32.04,49.12
			c0,2.5-0.229,4.98-0.689,7.44c-10.98,59.11-151.95,105.86-324.22,105.86C282.38,385.17,147.52,343.4,123.97,288.9z M660.21,295.6
			c0-7.3-5.93-13.23-13.24-13.23c-7.31,0-13.239,5.93-13.239,13.23c0,7.31,5.93,13.24,13.239,13.24
			C654.28,308.84,660.21,302.91,660.21,295.6z M557.07,263.93c0-7.3-5.931-13.22-13.24-13.22c-7.311,0-13.24,5.92-13.24,13.22
			c0,7.32,5.93,13.25,13.24,13.25C551.14,277.18,557.07,271.25,557.07,263.93z M557.07,338.14c0-7.3-5.931-13.23-13.24-13.23
			c-7.311,0-13.24,5.93-13.24,13.23c0,7.32,5.93,13.25,13.24,13.25C551.14,351.39,557.07,345.46,557.07,338.14z M457.56,240.87
			c0-7.29-5.93-13.22-13.239-13.22c-7.311,0-13.24,5.93-13.24,13.22c0,7.32,5.93,13.25,13.24,13.25
			C451.63,254.12,457.56,248.19,457.56,240.87z M457.56,315.08c0-7.29-5.93-13.22-13.239-13.22c-7.311,0-13.24,5.93-13.24,13.22
			c0,7.32,5.93,13.25,13.24,13.25C451.63,328.33,457.56,322.4,457.56,315.08z M350.77,263.26c0-7.29-5.92-13.22-13.24-13.22
			c-7.31,0-13.24,5.93-13.24,13.22c0,7.33,5.93,13.26,13.24,13.26C344.85,276.52,350.77,270.59,350.77,263.26z M350.77,337.47
			c0-7.29-5.92-13.22-13.24-13.22c-7.31,0-13.24,5.93-13.24,13.22c0,7.32,5.93,13.25,13.24,13.25
			C344.85,350.72,350.77,344.79,350.77,337.47z M247.63,294.93c0-7.29-5.92-13.22-13.24-13.22c-7.31,0-13.24,5.93-13.24,13.22
			c0,7.32,5.93,13.25,13.24,13.25C241.71,308.18,247.63,302.25,247.63,294.93z"/>
		<path style="fill:#231F20;" d="M648.79,392.45c7.31,0,13.24,5.93,13.24,13.24c0,7.3-5.931,13.23-13.24,13.23
			s-13.24-5.93-13.24-13.23C635.55,398.38,641.48,392.45,648.79,392.45z"/>
		<path style="fill:#231F20;" d="M648.79,451.91c7.31,0,13.24,5.93,13.24,13.24c0,7.29-5.931,13.22-13.24,13.22
			s-13.24-5.93-13.24-13.22C635.55,457.84,641.48,451.91,648.79,451.91z"/>
		<path style="fill:#231F20;" d="M648.79,508.93c7.31,0,13.24,5.931,13.24,13.25c0,7.301-5.931,13.23-13.24,13.23
			s-13.24-5.93-13.24-13.23C635.55,514.86,641.48,508.93,648.79,508.93z"/>
		<path style="fill:#231F20;" d="M646.97,282.37c7.311,0,13.24,5.93,13.24,13.23c0,7.31-5.93,13.24-13.24,13.24
			c-7.31,0-13.239-5.93-13.239-13.24C633.73,288.3,639.66,282.37,646.97,282.37z"/>
		<path style="fill:#231F20;" d="M545.65,424.11c7.31,0,13.239,5.93,13.239,13.25c0,7.29-5.93,13.22-13.239,13.22
			c-7.311,0-13.24-5.93-13.24-13.22C532.41,430.04,538.34,424.11,545.65,424.11z"/>
		<path style="fill:#231F20;" d="M545.65,483.57c7.31,0,13.239,5.93,13.239,13.239c0,7.301-5.93,13.23-13.239,13.23
			c-7.311,0-13.24-5.93-13.24-13.23C532.41,489.5,538.34,483.57,545.65,483.57z"/>
		<path style="fill:#231F20;" d="M545.65,540.6c7.31,0,13.239,5.931,13.239,13.25c0,7.29-5.93,13.221-13.239,13.221
			c-7.311,0-13.24-5.931-13.24-13.221C532.41,546.53,538.34,540.6,545.65,540.6z"/>
		<path style="fill:#231F20;" d="M543.83,250.71c7.31,0,13.24,5.92,13.24,13.22c0,7.32-5.931,13.25-13.24,13.25
			c-7.311,0-13.24-5.93-13.24-13.25C530.59,256.63,536.52,250.71,543.83,250.71z"/>
		<path style="fill:#231F20;" d="M543.83,324.91c7.31,0,13.24,5.93,13.24,13.23c0,7.32-5.931,13.25-13.24,13.25
			c-7.311,0-13.24-5.93-13.24-13.25C530.59,330.84,536.52,324.91,543.83,324.91z"/>
		<path style="fill:#231F20;" d="M446.14,447.17c7.311,0,13.24,5.93,13.24,13.25c0,7.29-5.93,13.22-13.24,13.22
			c-7.31,0-13.229-5.93-13.229-13.22C432.91,453.1,438.83,447.17,446.14,447.17z"/>
		<path style="fill:#231F20;" d="M446.14,506.63c7.311,0,13.24,5.93,13.24,13.24c0,7.3-5.93,13.229-13.24,13.229
			c-7.31,0-13.229-5.93-13.229-13.229C432.91,512.56,438.83,506.63,446.14,506.63z"/>
		<path style="fill:#231F20;" d="M446.14,563.66c7.311,0,13.24,5.93,13.24,13.24c0,7.3-5.93,13.229-13.24,13.229
			c-7.31,0-13.229-5.93-13.229-13.229C432.91,569.59,438.83,563.66,446.14,563.66z"/>
		<path style="fill:#231F20;" d="M444.32,227.65c7.31,0,13.239,5.93,13.239,13.22c0,7.32-5.93,13.25-13.239,13.25
			c-7.311,0-13.24-5.93-13.24-13.25C431.08,233.58,437.01,227.65,444.32,227.65z"/>
		<path style="fill:#231F20;" d="M444.32,301.86c7.31,0,13.239,5.93,13.239,13.22c0,7.32-5.93,13.25-13.239,13.25
			c-7.311,0-13.24-5.93-13.24-13.25C431.08,307.79,437.01,301.86,444.32,301.86z"/>
		<path style="fill:#231F20;" d="M339.35,424.78c7.32,0,13.24,5.92,13.24,13.25c0,7.29-5.92,13.22-13.24,13.22
			c-7.31,0-13.24-5.93-13.24-13.22C326.11,430.7,332.04,424.78,339.35,424.78z"/>
		<path style="fill:#231F20;" d="M339.35,484.23c7.32,0,13.24,5.93,13.24,13.25c0,7.3-5.92,13.229-13.24,13.229
			c-7.31,0-13.24-5.93-13.24-13.229C326.11,490.16,332.04,484.23,339.35,484.23z"/>
		<path style="fill:#231F20;" d="M339.35,541.27c7.32,0,13.24,5.931,13.24,13.24c0,7.29-5.92,13.221-13.24,13.221
			c-7.31,0-13.24-5.931-13.24-13.221C326.11,547.2,332.04,541.27,339.35,541.27z"/>
		<path style="fill:#231F20;" d="M337.53,250.04c7.32,0,13.24,5.93,13.24,13.22c0,7.33-5.92,13.26-13.24,13.26
			c-7.31,0-13.24-5.93-13.24-13.26C324.29,255.97,330.22,250.04,337.53,250.04z"/>
		<path style="fill:#231F20;" d="M337.53,324.25c7.32,0,13.24,5.93,13.24,13.22c0,7.32-5.92,13.25-13.24,13.25
			c-7.31,0-13.24-5.93-13.24-13.25C324.29,330.18,330.22,324.25,337.53,324.25z"/>
		<path style="fill:#231F20;" d="M236.21,393.11c7.32,0,13.24,5.93,13.24,13.25c0,7.29-5.92,13.22-13.24,13.22
			c-7.31,0-13.24-5.93-13.24-13.22C222.97,399.04,228.9,393.11,236.21,393.11z"/>
		<path style="fill:#231F20;" d="M236.21,452.58c7.32,0,13.24,5.92,13.24,13.229c0,7.301-5.92,13.23-13.24,13.23
			c-7.31,0-13.24-5.93-13.24-13.23C222.97,458.5,228.9,452.58,236.21,452.58z"/>
		<path style="fill:#231F20;" d="M236.21,509.6c7.32,0,13.24,5.931,13.24,13.25c0,7.301-5.92,13.23-13.24,13.23
			c-7.31,0-13.24-5.93-13.24-13.23C222.97,515.53,228.9,509.6,236.21,509.6z"/>
		<path style="fill:#231F20;" d="M234.39,281.71c7.32,0,13.24,5.93,13.24,13.22c0,7.32-5.92,13.25-13.24,13.25
			c-7.31,0-13.24-5.93-13.24-13.25C221.15,287.64,227.08,281.71,234.39,281.71z"/>
	</g>
	<g>
		<path style="fill:none;stroke:#231F20;stroke-width:21;" d="M738.1,222.75c20.53,14.86,32.04,31.52,32.04,49.12
			c0,2.5-0.229,4.98-0.689,7.44c-10.98,59.11-151.95,105.86-324.22,105.86c-162.851,0-297.71-41.77-321.26-96.27
			c-2.4-5.56-3.64-11.24-3.64-17.03c0-62.57,145.46-113.29,324.9-113.29c58.06,0,112.569,5.31,159.739,14.61
			C662.58,184.56,709.25,201.88,738.1,222.75z"/>
		<path style="fill:none;stroke:#231F20;stroke-width:21;" d="M769.46,279.1c0,0.07-0.01,0.14-0.01,0.21
			c-2.62,43.1-0.17,123.37-18.19,164.23c-15.34,34.79-39.609,65.11-68.47,89.65c-19.28,16.39-40.61,30.199-63.29,41.5
			C566.15,601.31,505.38,614.1,446.42,614.1l-0.28-0.02c-58.709,0-119.229-12.69-172.41-39.08c-22.92-11.36-44.49-25.28-63.95-41.83
			c-28.86-24.54-53.13-54.86-68.47-89.65c-8.04-18.22-11.83-42.359-13.8-67.319c-2.16-27.32-2.13-55.64-3.08-78.3
			c-0.13-3.12-0.28-6.12-0.46-9c0-0.02,0-0.04,0-0.06"/>
		<path style="fill:none;stroke:#231F20;stroke-width:21;" d="M619.5,574.69c11.02,12.68,17.16,26.79,17.16,41.649
			c0,55.29-85.021,100.11-189.9,100.11c-104.89,0-189.92-44.82-189.92-100.11c0-14.74,6.04-28.74,16.89-41.34
			c0.01-0.01,0.01-0.01,0.02-0.02"/>
		<path style="fill:none;stroke:#231F20;stroke-width:28;" d="M606,168c6.88-8.23,6.48-32.2,49.47-32.2
			c23.66,0,107.391,25.48,120.13,38.22C788.34,186.77,744,193.79,744,222"/>
		<path style="fill:none;stroke:#231F20;stroke-width:28;" d="M122,298c0,0-37.17-4.75-50.82,8.9
			c-13.65,13.65,33.6,46.57,56.33,69.3l0.01,0.01c22.73,22.73,52.87-15.61,92.92,8.96"/>
	</g>
</g>
<rect style="fill:none;" width="850.394" height="850.394"/>
</svg>
